outputs/icons/device/brightness_round.svg

<svg xmlns="http://www.w3.org/2000/svg" width="1200" height="1200" fill="none"><g clip-path="url(#a)"><path fill="#000" d="m999.995 765.505 95-95c39-39 39-102.5 0-141.5l-95-94.498v-134.5c0-55-45-100-100-100h-134.5l-95-95c-39-39-102.5-39-141.5 0l-94.5 95H299.994c-54.999 0-99.999 45-99.999 100v134.5l-95.001 94.998c-38.999 39-38.999 102.5 0 141.5l95.001 95v134c0 55 45 100 99.999 100h134.501l95 95c39 39 102.5 39 141.5 0l95-95h134c55 0 100-45 100-100zm-400 79.5V355.007c0-30.5 27.5-55.5 57.5-49.5 138 27 242.5 148.5 242.5 294.498 0 146-104.5 267.5-242.5 294.5-30 6-57.5-19-57.5-49.5"/></g><defs><clipPath id="a"><path fill="#fff" d="M0 0h1200v1200H0z"/></clipPath></defs></svg>

<svg width="1200" height="1200" viewBox="0 0 1200 1200" fill="none" xmlns="http://www.w3.org/2000/svg"><g clip-path="url(#clip0_231_4434)"><path d="M999.995 765.505L1094.995 670.505C1133.995 631.505 1133.995 568.005 1094.995 529.005L999.995 434.507V300.007C999.995 245.007 954.995 200.007 899.995 200.007H765.495L670.495 105.007C631.495 66.007 567.995 66.007 528.995 105.007L434.495 200.007H299.994C244.995 200.007 199.995 245.007 199.995 300.007V434.507L104.994 529.505C65.995 568.505 65.995 632.005 104.994 671.005L199.995 766.005V900.005C199.995 955.005 244.995 1000.005 299.994 1000.005H434.495L529.495 1095.005C568.495 1134.005 631.995 1134.005 670.995 1095.005L765.995 1000.005H899.995C954.995 1000.005 999.995 955.005 999.995 900.005V765.505ZM599.995 845.005V355.007C599.995 324.507 627.495 299.507 657.495 305.507C795.495 332.507 899.995 454.007 899.995 600.005C899.995 746.005 795.495 867.505 657.495 894.505C627.495 900.505 599.995 875.505 599.995 845.005Z" fill="black"/></g><defs><clipPath id="clip0_231_4434"><path width="24" fill="white" d="M0 0H1200V1200H0V0z"/></clipPath></defs></svg>
